flaticon/arrows/move-3.svg

<svg xmlns="http://www.w3.org/2000/svg" width="32" height="32" viewBox="0 0 24 24">
    <path d="M 23.96875 12.152344 C 24.007812 12.054688 24.007812 11.945312 23.96875 11.847656 C 23.949219 11.796875 23.917969 11.753906 23.882812 11.714844 L 19.882812 7.71875 C 19.726562 7.558594 19.472656 7.558594 19.316406 7.71875 C 19.160156 7.875 19.160156 8.125 19.316406 8.28125 L 22.632812 11.601562 L 15.601562 11.601562 L 15.601562 8.398438 L 12.398438 8.398438 L 12.398438 1.363281 L 15.71875 4.683594 C 15.796875 4.761719 15.898438 4.800781 16 4.800781 C 16.101562 4.800781 16.203125 4.761719 16.28125 4.683594 C 16.4375 4.527344 16.4375 4.273438 16.28125 4.117188 L 12.28125 0.117188 C 12.246094 0.078125 12.203125 0.0507812 12.152344 0.03125 C 12.054688 -0.0117188 11.945312 -0.0117188 11.847656 0.03125 C 11.796875 0.0507812 11.753906 0.078125 11.714844 0.117188 L 7.71875 4.117188 C 7.558594 4.273438 7.558594 4.527344 7.71875 4.683594 C 7.796875 4.761719 7.898438 4.800781 8 4.800781 C 8.101562 4.800781 8.203125 4.761719 8.28125 4.683594 L 11.601562 1.363281 L 11.601562 8.398438 L 8.398438 8.398438 L 8.398438 11.601562 L 1.363281 11.601562 L 4.683594 8.28125 C 4.839844 8.125 4.839844 7.875 4.683594 7.71875 C 4.527344 7.558594 4.273438 7.558594 4.117188 7.71875 L 0.117188 11.714844 C 0.078125 11.753906 0.0507812 11.796875 0.03125 11.847656 C -0.0117188 11.945312 -0.0117188 12.054688 0.03125 12.152344 C 0.0507812 12.203125 0.078125 12.246094 0.117188 12.28125 L 4.117188 16.28125 C 4.195312 16.359375 4.296875 16.398438 4.398438 16.398438 C 4.503906 16.398438 4.605469 16.359375 4.683594 16.28125 C 4.839844 16.125 4.839844 15.875 4.683594 15.71875 L 1.363281 12.398438 L 8.398438 12.398438 L 8.398438 15.601562 L 11.601562 15.601562 L 11.601562 22.632812 L 8.28125 19.316406 C 8.125 19.160156 7.875 19.160156 7.71875 19.316406 C 7.558594 19.472656 7.558594 19.726562 7.71875 19.882812 L 11.714844 23.882812 C 11.753906 23.917969 11.796875 23.949219 11.847656 23.96875 C 11.894531 23.988281 11.949219 24 12 24 C 12.050781 24 12.105469 23.988281 12.152344 23.96875 C 12.203125 23.949219 12.246094 23.917969 12.28125 23.882812 L 16.28125 19.882812 C 16.4375 19.726562 16.4375 19.472656 16.28125 19.316406 C 16.125 19.160156 15.875 19.160156 15.71875 19.316406 L 12.398438 22.632812 L 12.398438 15.601562 L 15.601562 15.601562 L 15.601562 12.398438 L 22.632812 12.398438 L 19.316406 15.71875 C 19.160156 15.875 19.160156 16.125 19.316406 16.28125 C 19.394531 16.359375 19.496094 16.398438 19.601562 16.398438 C 19.703125 16.398438 19.804688 16.359375 19.882812 16.28125 L 23.882812 12.28125 C 23.917969 12.246094 23.949219 12.203125 23.96875 12.152344 Z M 14.800781 14.800781 L 9.199219 14.800781 L 9.199219 9.199219 L 14.800781 9.199219 Z M 14.800781 14.800781"/>
</svg>

<svg xmlns="http://www.w3.org/2000/svg" width="32" height="32" viewBox="0 0 24 24">
    <path d="M23.969 12.152a.41.41 0 0 0-.086-.437l-4-3.996a.394.394 0 0 0-.567 0 .396.396 0 0 0 0 .562l3.317 3.32h-7.031V8.399h-3.204V1.363l3.32 3.32a.396.396 0 0 0 .563 0 .4.4 0 0 0 0-.566l-4-4a.326.326 0 0 0-.129-.086.376.376 0 0 0-.304 0 .37.37 0 0 0-.133.086l-3.996 4a.394.394 0 0 0 0 .567.396.396 0 0 0 .562 0l3.32-3.32v7.034H8.399v3.204H1.363l3.32-3.32a.396.396 0 0 0 0-.563.394.394 0 0 0-.566 0l-4 3.996a.37.37 0 0 0-.086.133.376.376 0 0 0 0 .304c.02.051.047.094.086.13l4 4a.399.399 0 0 0 .566-.563l-3.32-3.32h7.035v3.203h3.204v7.03l-3.32-3.316a.396.396 0 0 0-.563 0 .394.394 0 0 0 0 .567l3.996 4A.432.432 0 0 0 12 24a.408.408 0 0 0 .281-.117l4-4a.4.4 0 0 0 0-.567.396.396 0 0 0-.562 0l-3.32 3.317v-7.031h3.203v-3.204h7.03l-3.316 3.32a.399.399 0 1 0 .566.563l4-4a.373.373 0 0 0 .087-.129zM14.8 14.801H9.199V9.199h5.602zm0 0"/>
</svg>
